X:287
T:Patsy Tuohey's
Z: id:dc-reel-267
M:C
L:1/8
K:E Dorian
ed|BEE2 BAFA|D2FA DAFA|BEE2 BAFA|Bdeg fe:|!
ed|e2ge bege|defg afdf|e2ge bege|defa geed|!
e2ge bege|defg a2ga|bgaf gefd|Bdeg fe|]!

